Numix/22/status/stock_signature-bad.svg

<?xml version="1.0" encoding="UTF-8" standalone="no"?>
<!-- Created with Inkscape (http://www.inkscape.org/) -->

<svg
   xmlns:dc="http://purl.org/dc/elements/1.1/"
   xmlns:cc="http://creativecommons.org/ns#"
   xmlns:rdf="http://www.w3.org/1999/02/22-rdf-syntax-ns#"
   xmlns:svg="http://www.w3.org/2000/svg"
   xmlns="http://www.w3.org/2000/svg"
   xmlns:sodipodi="http://sodipodi.sourceforge.net/DTD/sodipodi-0.dtd"
   xmlns:inkscape="http://www.inkscape.org/namespaces/inkscape"
   width="22"
   height="22"
   id="svg1307"
   sodipodi:version="0.32"
   inkscape:version="0.91 r"
   version="1.0"
   sodipodi:docname="stock_signature-bad.svg"
   inkscape:export-filename="/home/pinheiro/Documents/pics/new oxygen/svg/pen.png"
   inkscape:export-xdpi="90"
   inkscape:export-ydpi="90"
   inkscape:output_extension="org.inkscape.output.svgz.inkscape">
  <defs
     id="defs1309" />
  <sodipodi:namedview
     id="base"
     pagecolor="#ffffff"
     bordercolor="#666666"
     borderopacity="1.0"
     inkscape:pageopacity="0.0"
     inkscape:pageshadow="2"
     inkscape:zoom="27.20131"
     inkscape:cx="12.586515"
     inkscape:cy="13.094523"
     inkscape:current-layer="layer1"
     showgrid="true"
     inkscape:document-units="px"
     inkscape:grid-bbox="true"
     guidetolerance="0.1px"
     showguides="true"
     inkscape:guide-bbox="true"
     inkscape:window-width="1920"
     inkscape:window-height="1056"
     inkscape:window-x="0"
     inkscape:window-y="24"
     inkscape:window-maximized="1">
    <inkscape:grid
       type="xygrid"
       id="grid4143" />
  </sodipodi:namedview>
  <metadata
     id="metadata1312">
    <rdf:RDF>
      <cc:Work
         rdf:about="">
        <dc:format>image/svg+xml</dc:format>
        <dc:type
           rdf:resource="http://purl.org/dc/dcmitype/StillImage" />
        <cc:license
           rdf:resource="http://creativecommons.org/licenses/GPL/2.0/" />
        <dc:contributor>
          <cc:Agent>
            <dc:title>Oxygen team</dc:title>
          </cc:Agent>
        </dc:contributor>
        <dc:title />
      </cc:Work>
      <cc:License
         rdf:about="http://creativecommons.org/licenses/LGPL/2.1/">
        <cc:permits
           rdf:resource="http://web.resource.org/cc/Reproduction" />
        <cc:permits
           rdf:resource="http://web.resource.org/cc/Distribution" />
        <cc:requires
           rdf:resource="http://web.resource.org/cc/Notice" />
        <cc:permits
           rdf:resource="http://web.resource.org/cc/DerivativeWorks" />
        <cc:requires
           rdf:resource="http://web.resource.org/cc/ShareAlike" />
        <cc:requires
           rdf:resource="http://web.resource.org/cc/SourceCode" />
      </cc:License>
    </rdf:RDF>
  </metadata>
  <g
     id="layer1"
     inkscape:label="Layer 1"
     inkscape:groupmode="layer"
     transform="translate(0,-106)">
    <path
       style="fill:#3370d0;fill-opacity:1;fill-rule:evenodd;stroke:none;stroke-width:1px;stroke-linecap:butt;stroke-linejoin:miter;stroke-opacity:1"
       d="M 11.810547 4.6953125 C 11.261763 4.6963125 10.65412 4.741855 9.984375 4.828125 C 9.22905 4.925425 8.3880003 5.0734575 7.4648438 5.2734375 C 6.6395848 5.4626375 5.8565569 5.6714275 5.1152344 5.8984375 C 4.3878898 6.1200675 3.6964637 6.3669081 3.0390625 6.6425781 C 1.7242513 7.1831381 1.0458669 7.6267163 1.0039062 7.9726562 C 0.96194255 8.3294162 1.275873 8.5333813 1.9472656 8.5820312 C 2.2969463 8.6091313 2.7174725 8.5937031 3.2070312 8.5332031 C 3.3748767 8.5171031 4.2519518 8.40207 4.2519531 8.375 C 4.2519502 8.3426 4.2507942 8.3754256 3.6171875 8.1347656 C 3.3913683 8.0488656 3.3486571 8.0542238 3.2207031 7.9960938 C 3.1530181 7.9651937 3.0638383 7.9490256 3.0253906 7.8847656 C 3.0067666 7.8535656 2.9814085 7.8186906 3.0234375 7.7753906 C 3.3436986 7.4453706 5.3433533 6.78405 5.7851562 6.65625 C 6.5264789 6.44003 6.5543381 6.4402444 7.4355469 6.2402344 C 9.1839548 5.8618744 10.124706 5.6268175 11.089844 5.6484375 C 12.110905 5.6808375 12.396471 5.67637 12.396484 6.125 C 12.365364 6.34698 12.261762 6.4493138 12.15625 6.5898438 C 11.554782 7.3249637 10.01024 8.1952719 6.6113281 10.357422 C 6.5833451 10.384522 6.5553118 10.408288 6.5273438 10.429688 C 6.5133437 10.445787 6.5058554 10.462416 6.5058594 10.478516 C 6.505853 10.538016 8.2712825 10.890625 8.453125 10.890625 C 8.6489409 10.890625 8.8226943 10.848149 8.9765625 10.761719 C 9.1863649 10.626569 9.4797557 10.457813 9.8574219 10.257812 C 10.249058 10.057812 10.461666 9.9334137 11.035156 9.6523438 C 11.720525 9.3172038 12.404454 9.0028475 13.089844 8.7109375 C 13.77521 8.4190575 14.476086 8.13987 15.189453 7.875 C 16.951842 7.24256 17.142003 7.1993231 17.925781 7.0332031 C 18.316351 6.9504031 18.350721 6.9453125 18.560547 6.9453125 C 18.882236 6.9453125 18.993737 6.9499944 19.042969 7.1152344 C 19.079759 7.2387044 18.966342 7.3103081 18.8125 7.4238281 C 18.8125 7.4238281 18.176738 7.8418281 17.488281 8.3046875 L 18.0625 8.8789062 C 18.312672 8.6961158 18.567595 8.5190336 18.820312 8.3398438 L 19.585938 7.5742188 L 19.734375 7.7226562 C 20.17042 7.4669532 20.634335 7.2377041 20.935547 6.8378906 C 20.973357 6.7877906 20.993327 6.7230362 20.998047 6.6601562 C 21.003647 6.5860562 20.994321 6.5035231 20.957031 6.4394531 C 20.882901 6.3118531 20.748971 6.2259969 20.621094 6.1542969 C 20.486064 6.0785969 20.331728 6.0364956 20.179688 6.0097656 C 20.014225 5.9805656 19.871586 5.9780406 19.675781 5.9941406 C 18.444876 6.0698406 16.697571 6.5370244 14.431641 7.3964844 C 13.592387 7.7099844 12.822401 8.0127875 12.123047 8.3046875 C 11.437656 8.5965775 10.807845 8.8829825 10.234375 9.1640625 C 10.108479 9.2504625 9.9982925 9.2949219 9.9003906 9.2949219 C 9.8444316 9.2949219 9.8163973 9.2821187 9.8164062 9.2617188 C 9.8163971 9.2238188 9.8649707 9.1747044 9.9628906 9.1152344 C 11.081867 8.3909144 11.956496 7.7805031 12.585938 7.2832031 C 13.229342 6.7805031 13.647914 6.3836769 13.84375 6.0917969 C 13.91367 5.9675269 13.949192 5.84308 13.949219 5.71875 C 13.949205 5.43228 13.788493 5.2022769 13.466797 5.0292969 C 13.117101 4.8184969 12.634962 4.7080856 12.019531 4.6972656 C 11.951401 4.6962656 11.880655 4.6953125 11.810547 4.6953125 z M 13.019531 12.322266 C 12.797364 12.57105 12.568829 12.824967 12.378906 13.048828 C 12.099146 13.383968 11.86737 13.672776 11.685547 13.916016 C 11.526976 14.150926 11.437262 14.314107 11.416016 14.404297 C 10.668752 14.772777 9.1830165 15.397398 7.6035156 17.304688 C 10.268658 16.079098 10.351515 15.88369 11.798828 15.21875 C 12.028554 15.42707 12.02808 15.425331 12.029297 15.425781 C 12.255861 15.596851 12.537491 15.599466 12.800781 15.597656 C 13.017751 15.596146 13.204263 15.565844 13.392578 15.523438 L 12.515625 14.646484 L 13.380859 13.78125 C 13.139294 13.890499 12.897578 13.985411 12.658203 14.103516 C 12.666003 14.020316 12.704517 13.917442 12.773438 13.794922 C 12.927285 13.551682 13.151567 13.262864 13.445312 12.927734 C 13.47093 12.899834 13.50886 12.866166 13.535156 12.837891 L 13.019531 12.322266 z "
       transform="translate(0,106)"
       id="path4759" />
    <path
       sodipodi:nodetypes="ccc"
       id="path1987"
       d="m -21.591741,-220.6239 0,-2.79471 0,2.79471 z"
       style="fill:#ffffff;fill-opacity:0.75688076;fill-rule:nonzero;stroke:none;stroke-width:0.5;stroke-linecap:round;stroke-linejoin:round;stroke-miterlimit:4;stroke-dasharray:none;stroke-dashoffset:4;stroke-opacity:1"
       inkscape:connector-curvature="0" />
    <path
       sodipodi:nodetypes="ccc"
       id="path1747"
       d="m 26.204559,-335.9479 0,-2.79471 0,2.79471 z"
       style="fill:#ffffff;fill-opacity:0.75688076;fill-rule:nonzero;stroke:none;stroke-width:0.5;stroke-linecap:round;stroke-linejoin:round;stroke-miterlimit:4;stroke-dasharray:none;stroke-dashoffset:4;stroke-opacity:1"
       inkscape:connector-curvature="0" />
    <rect
       style="opacity:0.57786889;fill:#ffffff;fill-opacity:1;fill-rule:nonzero;stroke:none;stroke-width:3.63199997;stroke-linecap:round;stroke-linejoin:round;stroke-miterlimit:4;stroke-dasharray:none;stroke-dashoffset:4;stroke-opacity:1"
       id="rect1327"
       width="1"
       height="0"
       x="15.057414"
       y="-308.20486" />
    <path
       sodipodi:nodetypes="ccccccccccccc"
       inkscape:connector-curvature="0"
       id="path4-6"
       d="m 19.585903,116.40304 -1.414213,1.41422 -1.414116,-1.41412 -1.414574,1.41419 1.414261,1.41426 -1.41395,1.41414 1.414165,1.41417 1.413951,-1.41414 1.414238,1.41423 1.414524,-1.41423 -1.414237,-1.41424 1.414261,-1.41417 z"
       style="fill:#ee545b;fill-opacity:1" />
  </g>
</svg>

<!-- Created with Inkscape (http://www.inkscape.org/) -->
<svg xmlns="http://www.w3.org/2000/svg" viewBox="0 0 22 22">
 <g transform="translate(0,-106)">
  <path d="m 11.811 4.695 c -0.549 0.001 -1.156 0.047 -1.826 0.133 c -0.755 0.097 -1.596 0.245 -2.52 0.445 c -0.825 0.189 -1.608 0.398 -2.35 0.625 c -0.727 0.222 -1.419 0.468 -2.076 0.744 c -1.315 0.541 -1.993 0.984 -2.035 1.33 c -0.042 0.357 0.272 0.561 0.943 0.609 c 0.35 0.027 0.77 0.012 1.26 -0.049 c 0.168 -0.016 1.045 -0.131 1.045 -0.158 c 0 -0.032 -0.001 0 -0.635 -0.24 c -0.226 -0.086 -0.269 -0.081 -0.396 -0.139 c -0.068 -0.031 -0.157 -0.047 -0.195 -0.111 c -0.019 -0.031 -0.044 -0.066 -0.002 -0.109 c 0.32 -0.33 2.32 -0.991 2.762 -1.119 c 0.741 -0.216 0.769 -0.216 1.65 -0.416 c 1.748 -0.378 2.689 -0.613 3.654 -0.592 c 1.021 0.032 1.307 0.028 1.307 0.477 c -0.031 0.222 -0.135 0.324 -0.24 0.465 c -0.601 0.735 -2.146 1.605 -5.545 3.768 c -0.028 0.027 -0.056 0.051 -0.084 0.072 c -0.014 0.016 -0.021 0.033 -0.021 0.049 c 0 0.059 1.765 0.412 1.947 0.412 c 0.196 0 0.37 -0.042 0.523 -0.129 c 0.21 -0.135 0.503 -0.304 0.881 -0.504 c 0.392 -0.2 0.604 -0.324 1.178 -0.605 c 0.685 -0.335 1.369 -0.649 2.055 -0.941 c 0.685 -0.292 1.386 -0.571 2.1 -0.836 c 1.762 -0.632 1.953 -0.676 2.736 -0.842 c 0.391 -0.083 0.425 -0.088 0.635 -0.088 c 0.322 0 0.433 0.005 0.482 0.17 c 0.037 0.123 -0.077 0.195 -0.23 0.309 c 0 0 -0.636 0.418 -1.324 0.881 l 0.574 0.574 c 0.25 -0.183 0.505 -0.36 0.758 -0.539 l 0.766 -0.766 l 0.148 0.148 c 0.436 -0.256 0.9 -0.485 1.201 -0.885 c 0.038 -0.05 0.058 -0.115 0.063 -0.178 c 0.006 -0.074 -0.004 -0.157 -0.041 -0.221 c -0.074 -0.128 -0.208 -0.213 -0.336 -0.285 c -0.135 -0.076 -0.289 -0.118 -0.441 -0.145 c -0.165 -0.029 -0.308 -0.032 -0.504 -0.016 c -1.231 0.076 -2.978 0.543 -5.244 1.402 c -0.839 0.313 -1.609 0.616 -2.309 0.908 c -0.685 0.292 -1.315 0.578 -1.889 0.859 c -0.126 0.086 -0.236 0.131 -0.334 0.131 c -0.056 0 -0.084 -0.013 -0.084 -0.033 c 0 -0.038 0.049 -0.087 0.146 -0.146 c 1.119 -0.724 1.994 -1.335 2.623 -1.832 c 0.643 -0.503 1.062 -0.9 1.258 -1.191 c 0.07 -0.124 0.105 -0.249 0.105 -0.373 c 0 -0.286 -0.161 -0.516 -0.482 -0.689 c -0.35 -0.211 -0.832 -0.321 -1.447 -0.332 c -0.068 -0.001 -0.139 -0.002 -0.209 -0.002 z m 1.209 7.627 c -0.222 0.249 -0.451 0.503 -0.641 0.727 c -0.28 0.335 -0.512 0.624 -0.693 0.867 c -0.159 0.235 -0.248 0.398 -0.27 0.488 c -0.747 0.368 -2.233 0.993 -3.813 2.9 c 2.665 -1.226 2.748 -1.421 4.195 -2.086 c 0.23 0.208 0.229 0.207 0.23 0.207 c 0.227 0.171 0.508 0.174 0.771 0.172 c 0.217 -0.002 0.403 -0.032 0.592 -0.074 l -0.877 -0.877 l 0.865 -0.865 c -0.242 0.109 -0.483 0.204 -0.723 0.322 c 0.008 -0.083 0.046 -0.186 0.115 -0.309 c 0.154 -0.243 0.378 -0.532 0.672 -0.867 c 0.026 -0.028 0.064 -0.062 0.09 -0.09 l -0.516 -0.516 z" transform="translate(0,106)" style="fill:#3370d0;fill-opacity:1;stroke:none;fill-rule:evenodd"/>
  <path d="m 19.586 116.4 -1.414 1.414 -1.414 -1.414 -1.415 1.414 1.414 1.414 -1.414 1.414 1.414 1.414 1.414 -1.414 1.414 1.414 1.415 -1.414 -1.414 -1.414 1.414 -1.414 z" style="fill:#ee545b;fill-opacity:1"/>
 </g>
</svg>
